X:712
T:Untitled Reel
T:Periwig
D:Ossian, Dove Across the Water
Z:Nigel Gatherer
M:4/4
L:1/8
K:Em
ef | g2 fg    agfa | gefg     dB B2    | 
     g2 fg    agfa | gefd     e2      :|
eg | dB B/B/B dBdg | dB B/B/B cA A/A/A |
     dB B/B/B dBdf | gefd     e2      :|
<end>
<start>
